modules/cstl-admin/grunt/src/img/icon-pyramid.svg

<svg xmlns="http://www.w3.org/2000/svg" width="21" height="21" viewBox="0 0 21 21"><style type="text/css"><![CDATA[
	.st0{fill:none;stroke:#8B8B8B;stroke-width:0.5;stroke-linecap:round;stroke-linejoin:round;stroke-miterlimit:10;}
	.st1{fill:#FFFFFF;}
	.st2{fill:#CCCCCC;}
	.st3{fill:none;stroke:#A6A6A6;stroke-linecap:round;stroke-linejoin:round;stroke-miterlimit:10;}
]]></style><circle class="st1" cx="10.5" cy="10.6" r="10.5"/><path class="st2" d="M-251.3 100"/><path class="st3" d="M10.5 2.9l-8 9.2 8 5.2 8-5.2zm0 0v14.4"/><path class="st0" d="M10.5 2.9l-5.7 10.7m5.7-10.7l-3.1 12.3m3.1-12.3l2.9 12.5m-2.9-12.5l5.7 10.7m.5-3.6l-6.3 3.6m4.5-5.7l-4.5 2.6m2.6-4.8l-2.6 1.5m0 6.4l-6.1-3.5m6.1.4l-4.5-2.6m4.5-.7l-2.2-1.1"/></svg>

<svg xmlns="http://www.w3.org/2000/svg" width="21" height="21" viewBox="0 0 21 21"><style type="text/css"><![CDATA[
	.st0{fill:none;stroke:#8B8B8B;stroke-width:0.5;stroke-linecap:round;stroke-linejoin:round;stroke-miterlimit:10;}
	.st1{fill:#FFFFFF;}
	.st2{fill:#CCCCCC;}
	.st3{fill:none;stroke:#A6A6A6;stroke-linecap:round;stroke-linejoin:round;stroke-miterlimit:10;}
]]></style><circle class="st1" cx="10.5" cy="10.6" r="10.5"/><path class="st2" d="M-251.3 100"/><path class="st3" d="M10.5 2.9l-8 9.2 8 5.2 8-5.2zM10.5 2.9v14.4"/><path class="st0" d="M10.5 2.9L4.8 13.6M10.5 2.9L7.4 15.2M10.5 2.9l2.9 12.5M10.5 2.9l5.7 10.7M16.7 10l-6.3 3.6M14.9 7.9l-4.5 2.6M13 5.7l-2.6 1.5M10.4 13.6l-6.1-3.5M10.4 10.5L5.9 7.9M10.4 7.2L8.2 6.1"/></svg>
